X: 163
%
U:~=!turn!
T: Earl of Breadalbane's Hermitage
C:Neil Gow
O:Scotland
B:Keith Norman MacDonald : "The Skye collection of the best reels & strathspeys extant" : 1887
Z:Ralph Palmer
R:Reel
M:C
L:1/8
K:E aeolian
e !segno!|: E/E/E EG TB3 ^c | dBAd FDAF | E/E/E EG B3 (g | f)^dBd e3 f :| Tg>fef Tg<fef | Tfeda fadf |
Tg>fef Tg>feg | f^dBd e3 f | Tg>fef g>feg | Tf>eda fadf | gbeg bgeg | f^dBd e3 f !segno!|]


